X: 1
T: Reiländer av Magnus Törnblad
R: schottis
M: 2/4
L: 1/8
Q: 1/4=150
K: A
A>B c>d | e2 e2 | e>f e>d | B2 B2 | (3Bcd (3Bcd | (3Bcd (3Bcd | e>f e>d | c2 A2 |
A>B c>d | e2 e2 | e>f e>d | B2 B2 | B>c d>e | f>e d>c | B>A G>B | A4 :|
|: a>g f>e | c2 c2 |  e>f e>d | B2 B2 | f>e d>e |  f>e d>e | f>e d>f | f2 e2 |
 a>g f>e | c2 c2 |  e>f e>d | B2 B2 | B>c d>e | f>e d>c | B>A G>B | A4 :|


